frontend/public/svg/logos/y-combinator.svg

<svg width="81" height="116" viewBox="0 0 81 116" fill="none" xmlns="http://www.w3.org/2000/svg">
<g clip-path="url(#clip0)">
<path d="M78.4815 1.05615C77.8987 0.642086 77.2174 0.389162 76.5059 0.322896C75.7938 0.25663 75.0777 0.379563 74.4286 0.678947C73.4093 1.15159 72.5371 1.89236 71.9057 2.82198C64.3853 13.3799 56.5342 24.4679 48.5702 35.7799C46.7711 38.3343 45.0259 40.9143 43.1705 43.6454C42.4551 44.7016 41.7217 45.7817 40.9704 46.8857C40.503 46.3272 40.0482 45.791 39.6052 45.2692C38.3581 43.799 37.1767 42.4101 36.12 40.978C33.1592 36.9743 30.1756 32.8848 27.2897 28.9297C24.4549 25.0448 21.5243 21.0279 18.6167 17.0945C15.2517 12.5414 11.8126 8.03713 8.395 3.70137C6.70424 1.55777 4.4032 0.948166 2.53264 2.15058C0.715239 3.3182 0.439513 5.61989 1.8106 8.15731C2.77341 9.96755 3.86368 11.7069 5.07323 13.3625C8.55705 18.0546 11.9983 22.905 15.3259 27.5952C21.7016 36.5805 28.2945 45.8731 35.4952 54.4961C36.3646 55.4641 36.8476 56.718 36.8519 58.0191C36.8896 59.7474 36.9229 61.4761 36.9523 63.2044C37.0737 69.8991 37.1998 76.8188 37.6467 83.6119C38.1521 91.2996 39.0907 98.7733 40.1828 107.047C40.4926 109.147 41.3129 111.138 42.5718 112.847C42.9958 113.447 43.555 113.939 44.2043 114.284C44.8536 114.628 45.5749 114.814 46.3097 114.829C46.5192 114.829 46.7284 114.814 46.9357 114.783C47.7919 114.638 48.5923 114.263 49.2499 113.696C49.9075 113.129 50.3972 112.392 50.6658 111.567C51.227 109.994 51.4104 108.313 51.2013 106.657C48.8122 88.7898 47.8376 70.7786 47.2548 57.0833C47.1693 55.5412 47.6055 54.0152 48.4932 52.7514C49.956 50.5487 51.4086 48.339 52.8508 46.1223C55.1683 42.5781 57.5646 38.9125 59.9885 35.3584C63.0608 30.8533 66.2237 26.3009 69.2803 21.8936C72.1964 17.693 75.2116 13.3481 78.1455 9.05301C79.0479 7.78969 79.6452 6.33469 79.892 4.80189C80.0127 4.10848 79.9451 3.39572 79.697 2.73705C79.449 2.07839 79.0296 1.49781 78.4815 1.05615Z" fill="black"/>
</g>
<defs>
<clipPath id="clip0">
<rect width="80.0732" height="114.859" fill="white" transform="translate(0.415405 0.21582)"/>
</clipPath>
</defs>
</svg>

<svg xmlns="http://www.w3.org/2000/svg" width="81" height="116" fill="none" viewBox="0 0 81 116"><g clip-path="url(#a)"><path fill="#000" d="M78.482 1.056A4.06 4.06 0 0 0 74.429.68a6.2 6.2 0 0 0-2.523 2.143A7373 7373 0 0 0 48.57 35.78c-1.799 2.554-3.544 5.134-5.4 7.865a1794 1794 0 0 1-2.2 3.24 296 296 0 0 0-1.365-1.616c-1.247-1.47-2.428-2.859-3.485-4.291-2.96-4.004-5.944-8.093-8.83-12.048-2.835-3.885-5.766-7.902-8.673-11.835A545 545 0 0 0 8.395 3.7C6.705 1.558 4.403.948 2.533 2.151.715 3.318.44 5.62 1.81 8.157a43 43 0 0 0 3.262 5.206c3.484 4.692 6.925 9.542 10.253 14.232 6.376 8.986 12.968 18.278 20.17 26.901a5.3 5.3 0 0 1 1.356 3.523q.056 2.593.1 5.185c.122 6.695.248 13.615.695 20.408.505 7.688 1.444 15.161 2.536 23.435a13 13 0 0 0 2.389 5.8c.424.6.983 1.092 1.632 1.437.65.344 1.37.53 2.106.545q.315 0 .626-.046a4.76 4.76 0 0 0 3.73-3.216c.561-1.573.744-3.254.535-4.91-2.389-17.867-3.363-35.878-3.946-49.574a6.87 6.87 0 0 1 1.238-4.332 842 842 0 0 0 4.358-6.629c2.317-3.544 4.714-7.21 7.138-10.764 3.072-4.505 6.235-9.057 9.291-13.464 2.916-4.201 5.932-8.546 8.865-12.841a10.1 10.1 0 0 0 1.747-4.251 3.94 3.94 0 0 0-1.41-3.746"/></g><defs><clipPath id="a"><path fill="#fff" d="M.415.216h80.073v114.859H.415z"/></clipPath></defs></svg>
